icons/_src/qn/linkedin.svg

<svg xmlns="http://www.w3.org/2000/svg" width="24" height="24" viewBox="0 0 24 24"><path d="M12 2c5.514 0 10 4.486 10 10s-4.486 10-10 10-10-4.486-10-10 4.486-10 10-10zm0-2c-6.627 0-12 5.373-12 12s5.373 12 12 12 12-5.373 12-12-5.373-12-12-12zm-2 8c0 .557-.447 1.008-1 1.008s-1-.45-1-1.008c0-.557.447-1.008 1-1.008s1 .452 1 1.008zm0 2h-2v6h2v-6zm3 0h-2v6h2v-2.861c0-1.722 2.002-1.881 2.002 0v2.861h1.998v-3.359c0-3.284-3.128-3.164-4-1.548v-1.093z"/></svg>

<?xml version="1.0" encoding="utf-8"?>
<svg xmlns="http://www.w3.org/2000/svg" xmlns:xlink="http://www.w3.org/1999/xlink" viewBox="0 0 24 24">
  <path d="M12 2c5.514 0 10 4.486 10 10s-4.486 10-10 10S2 17.514 2 12 6.486 2 12 2zm0-2C5.373 0 0 5.373 0 12s5.373 12 12 12 12-5.373 12-12S18.627 0 12 0zm-2 8c0 .557-.447 1.008-1 1.008S8 8.558 8 8c0-.557.447-1.008 1-1.008S10 7.444 10 8zm0 2H8v6h2v-6zm3 0h-2v6h2v-2.86c0-1.723 2.002-1.882 2.002 0V16H17v-3.36c0-3.283-3.128-3.163-4-1.547V10z"/>
</svg>
